; generated by PrusaSlicer 2.3.3+win64 on 2021-11-04 at 12:54:38 UTC

; 

; external perimeters extrusion width = 0.45mm
; perimeters extrusion width = 0.45mm
; infill extrusion width = 0.45mm
; solid infill extrusion width = 0.45mm
; top infill extrusion width = 0.40mm
; support material extrusion width = 0.35mm
; first layer extrusion width = 0.42mm

M73 P0 R37
M73 Q0 S37
M201 X1000 Y1000 Z200 E5000 ; sets maximum accelerations, mm/sec^2
M203 X200 Y200 Z12 E120 ; sets maximum feedrates, mm/sec
M204 P1250 R1250 T1250 ; sets acceleration (P, T) and retract acceleration (R), mm/sec^2
M205 X8.00 Y8.00 Z0.40 E4.50 ; sets the jerk limits, mm/sec
M205 S0 T0 ; sets the minimum extruding and travel feed rate, mm/sec
M107
;TYPE:Custom
M862.3 P "MK3S" ; printer model check
M862.1 P0.4 ; nozzle diameter check
M115 U3.9.2 ; tell printer latest fw version
G90 ; use absolute coordinates
M83 ; extruder relative mode
M104 S215 ; set extruder temp
M140 S60 ; set bed temp
M190 S60 ; wait for bed temp
M109 S215 ; wait for extruder temp
G28 W ; home all without mesh bed level
G80 ; mesh bed leveling
G1 Y-3.0 F1000.0 ; go outside print area
G92 E0.0
G1 X60.0 E9.0 F1000.0 ; intro line
G1 X100.0 E12.5 F1000.0 ; intro line
G92 E0.0
M221 S95

; Don't change E values below. Excessive value can damage the printer.

M907 E538 ; set extruder motor current
G21 ; set units to millimeters
G90 ; use absolute coordinates
M83 ; use relative distances for extrusion
M900 K0.05 ; Filament gcode LA 1.5
M900 K30 ; Filament gcode LA 1.0
;LAYER_CHANGE
;Z:0.2
;HEIGHT:0.2
;BEFORE_LAYER_CHANGE
G92 E0.0
;0.2


G1 E-0.80000 F2100.000
G1 Z0.400 F10800.000
;AFTER_LAYER_CHANGE
;0.2
G1 X108.834 Y92.798
G1 Z0.200
G1 E0.80000 F2100.000
M204 S1000
;TYPE:Skirt
;WIDTH:0.42
G1 F1200.000
G1 X111.343 Y90.043 E0.11681
G1 X114.337 Y87.780 E0.11770
G1 X117.683 Y86.114 E0.11719
G1 X121.278 Y85.091 E0.11719
G1 X125.004 Y84.746 E0.11732
G1 X128.721 Y85.091 E0.11706
G1 X132.332 Y86.119 E0.11770
G1 X135.680 Y87.790 E0.11732
G1 X138.814 Y90.199 E0.12394
G1 X141.183 Y92.820 E0.11077
G1 X143.234 Y96.205 E0.12408
G1 X144.431 Y99.301 E0.10408
G1 X144.628 Y100.181 E0.02829
G1 X145.170 Y103.151 E0.09467
G1 X145.180 Y106.615 E0.10859
G1 X144.487 Y110.523 E0.12445
G1 X143.140 Y114.009 E0.11719
G1 X141.166 Y117.202 E0.11770
G1 X138.657 Y119.957 E0.11681
G1 X135.663 Y122.220 E0.11770
G1 X132.317 Y123.886 E0.11719
G1 X128.722 Y124.909 E0.11719
G1 X125.000 Y125.254 E0.11719
G1 X121.279 Y124.909 E0.11719
G1 X117.668 Y123.881 E0.11770
G1 X114.320 Y122.210 E0.11732
G1 X111.186 Y119.801 E0.12394
G1 X108.817 Y117.180 E0.11077
G1 X106.766 Y113.795 E0.12408
G1 X105.569 Y110.699 E0.10408
G1 X105.372 Y109.819 E0.02829
G1 X104.830 Y106.849 E0.09467
G1 X104.820 Y103.385 E0.10859
G1 X105.513 Y99.477 E0.12445
G1 X106.860 Y95.991 E0.11719
G1 X108.803 Y92.849 E0.11582
G1 X109.122 Y93.046 F10800.000
G1 F1200.000
G1 X111.599 Y90.320 E0.11548
G1 X114.534 Y88.101 E0.11537
G1 X117.821 Y86.465 E0.11513
G1 X121.349 Y85.461 E0.11501
G1 X125.005 Y85.123 E0.11513
G1 X128.654 Y85.462 E0.11489
G1 X132.192 Y86.470 E0.11537
G1 X135.478 Y88.109 E0.11513
G1 X138.538 Y90.457 E0.12092
G1 X140.877 Y93.041 E0.10928
G1 X142.882 Y96.341 E0.12108
G1 X144.074 Y99.420 E0.10352
G1 X144.258 Y100.250 E0.02666
G1 X144.794 Y103.182 E0.09346
G1 X144.802 Y106.615 E0.10762
G1 X144.123 Y110.423 E0.12128
G1 X142.799 Y113.847 E0.11513
G1 X140.864 Y116.977 E0.11537
G1 X138.401 Y119.680 E0.11465
G1 X135.466 Y121.899 E0.11537
G1 X132.179 Y123.535 E0.11513
G1 X128.651 Y124.539 E0.11501
G1 X124.999 Y124.877 E0.11501
G1 X121.346 Y124.538 E0.11501
G1 X117.808 Y123.530 E0.11537
G1 X114.522 Y121.891 E0.11513
G1 X111.462 Y119.543 E0.12092
G1 X109.123 Y116.959 E0.10928
G1 X107.118 Y113.659 E0.12108
G1 X105.926 Y110.580 E0.10352
G1 X105.742 Y109.750 E0.02666
G1 X105.206 Y106.818 E0.09346
G1 X105.198 Y103.385 E0.10762
G1 X105.877 Y99.577 E0.12128
G1 X107.201 Y96.153 E0.11513
G1 X109.091 Y93.097 E0.11264
;WIPE_START
G1 F8640.000
G1 X111.297 Y90.655 E-0.76000
;WIPE_END
G1 E-0.04000 F2100.000
G1 Z0.600 F10800.000
G1 X107.239 Y91.660
G1 Z0.200
G1 E0.80000 F2100.000
G1 F1200.000
G1 X110.048 Y88.573 E0.13089
G1 X113.386 Y86.066 E0.13088
G1 X117.101 Y84.239 E0.12982
G1 X121.092 Y83.134 E0.12983
G1 X125.250 Y82.789 E0.13084
G1 X129.328 Y83.213 E0.12855
G1 X133.257 Y84.379 E0.12850
G1 X136.891 Y86.237 E0.12795
G1 X139.762 Y88.406 E0.11283
G1 X140.365 Y88.993 E0.02639
G1 X142.826 Y91.746 E0.11578
M73 Q1 S37
G1 X144.780 Y94.891 E0.11609
G1 X146.295 Y98.681 E0.12796
M73 P1 R37
G1 X147.093 Y102.700 E0.12851
G1 X147.140 Y106.800 E0.12856
G1 X146.412 Y110.910 E0.13086
G1 X144.928 Y114.812 E0.13091
G1 X142.761 Y118.340 E0.12980
G1 X139.952 Y121.427 E0.13089
G1 X136.614 Y123.934 E0.13088
G1 X132.899 Y125.761 E0.12982
G1 X128.908 Y126.866 E0.12983
G1 X124.750 Y127.211 E0.13084
G1 X120.672 Y126.787 E0.12855
G1 X116.743 Y125.621 E0.12850
G1 X113.109 Y123.763 E0.12795
G1 X110.238 Y121.594 E0.11283
G1 X109.635 Y121.007 E0.02639
G1 X107.174 Y118.254 E0.11578
G1 X105.220 Y115.109 E0.11609
G1 X103.705 Y111.319 E0.12796
G1 X102.907 Y107.300 E0.12851
G1 X102.860 Y103.200 E0.12856
G1 X103.588 Y99.090 E0.13086
G1 X105.072 Y95.188 E0.13091
G1 X107.208 Y91.711 E0.12792
G1 X107.526 Y91.907 F10800.000
G1 F1200.000
G1 X110.289 Y88.863 E0.12889
G1 X113.568 Y86.396 E0.12866
G1 X117.219 Y84.598 E0.12761
G1 X121.141 Y83.508 E0.12762
G1 X125.229 Y83.165 E0.12864
G1 X129.238 Y83.580 E0.12636
G1 X133.102 Y84.723 E0.12633
G1 X136.676 Y86.548 E0.12585
G1 X139.525 Y88.699 E0.11193
G1 X140.088 Y89.249 E0.02467
G1 X142.534 Y91.985 E0.11506
G1 X144.451 Y95.076 E0.11402
G1 X145.938 Y98.804 E0.12586
G1 X146.720 Y102.756 E0.12633
G1 X146.763 Y106.787 E0.12637
G1 X146.044 Y110.826 E0.12866
G1 X144.597 Y114.630 E0.12760
G1 X142.470 Y118.099 E0.12759
G1 X139.711 Y121.137 E0.12867
G1 X136.432 Y123.604 E0.12866
G1 X132.781 Y125.402 E0.12761
G1 X128.859 Y126.492 E0.12762
G1 X124.771 Y126.835 E0.12864
G1 X120.762 Y126.420 E0.12636
G1 X116.898 Y125.277 E0.12633
G1 X113.324 Y123.452 E0.12585
G1 X110.475 Y121.301 E0.11193
G1 X109.912 Y120.751 E0.02467
G1 X107.466 Y118.015 E0.11506
G1 X105.549 Y114.924 E0.11402
G1 X104.062 Y111.196 E0.12586
G1 X103.280 Y107.244 E0.12633
G1 X103.237 Y103.213 E0.12637
G1 X103.956 Y99.174 E0.12866
G1 X105.403 Y95.370 E0.12760
G1 X107.495 Y91.958 E0.12548
G1 X107.816 Y92.155 F10800.000
G1 F1200.000
G1 X110.556 Y89.130 E0.12798
G1 X113.751 Y86.726 E0.12536
G1 X117.338 Y84.956 E0.12541
G1 X121.191 Y83.882 E0.12541
G1 X125.209 Y83.542 E0.12643
G1 X129.148 Y83.946 E0.12417
G1 X132.946 Y85.067 E0.12415
G1 X136.462 Y86.859 E0.12375
G1 X139.288 Y88.993 E0.11103
G1 X139.811 Y89.505 E0.02295
G1 X142.222 Y92.198 E0.11332
G1 X144.121 Y95.260 E0.11298
G1 X145.581 Y98.927 E0.12376
G1 X146.347 Y102.812 E0.12415
G1 X146.385 Y106.772 E0.12418
G1 X145.676 Y110.743 E0.12645
G1 X144.251 Y114.479 E0.12539
G1 X142.158 Y117.887 E0.12539
G1 X139.444 Y120.870 E0.12646
G1 X136.249 Y123.274 E0.12536
G1 X132.662 Y125.044 E0.12541
G1 X128.809 Y126.118 E0.12541
G1 X124.791 Y126.458 E0.12643
G1 X120.852 Y126.054 E0.12417
G1 X117.054 Y124.933 E0.12415
G1 X113.538 Y123.141 E0.12375
G1 X110.712 Y121.007 E0.11103
G1 X110.189 Y120.495 E0.02295
G1 X107.778 Y117.802 E0.11332
G1 X105.879 Y114.740 E0.11298
G1 X104.419 Y111.073 E0.12376
G1 X103.653 Y107.188 E0.12415
G1 X103.615 Y103.228 E0.12418
G1 X104.324 Y99.257 E0.12645
G1 X105.749 Y95.521 E0.12539
G1 X107.785 Y92.206 E0.12195
G1 X108.106 Y92.404 F10800.000
G1 F1200.000
G1 X108.154 Y92.326 E0.00288
G1 X110.797 Y89.421 E0.12316
G1 X113.934 Y87.056 E0.12316
G1 X117.456 Y85.314 E0.12321
G1 X121.240 Y84.256 E0.12319
G1 X125.188 Y83.919 E0.12423
G1 X129.059 Y84.313 E0.12199
G1 X132.791 Y85.411 E0.12197
G1 X136.249 Y87.170 E0.12164
G1 X139.051 Y89.286 E0.11012
G1 X139.535 Y89.761 E0.02124
G1 X141.910 Y92.411 E0.11159
G1 X143.792 Y95.445 E0.11193
G1 X145.224 Y99.050 E0.12164
G1 X145.973 Y102.867 E0.12197
G1 X146.008 Y106.758 E0.12199
G1 X145.308 Y110.658 E0.12425
G1 X143.905 Y114.328 E0.12318
G1 X141.846 Y117.674 E0.12318
G1 X139.203 Y120.579 E0.12316
G1 X136.066 Y122.944 E0.12316
G1 X132.544 Y124.686 E0.12321
M73 Q2 S37
G1 X128.760 Y125.744 E0.12319
M73 P2 R37
G1 X124.812 Y126.081 E0.12423
G1 X120.941 Y125.687 E0.12199
G1 X117.209 Y124.589 E0.12197
G1 X113.751 Y122.830 E0.12164
G1 X110.949 Y120.714 E0.11012
G1 X110.465 Y120.239 E0.02124
G1 X108.090 Y117.589 E0.11159
G1 X106.208 Y114.555 E0.11193
G1 X104.776 Y110.950 E0.12164
G1 X104.027 Y107.133 E0.12197
G1 X103.992 Y103.242 E0.12199
G1 X104.692 Y99.342 E0.12425
G1 X106.095 Y95.672 E0.12318
G1 X108.074 Y92.455 E0.11843
G1 X108.395 Y92.653 F10800.000
G1 F1200.000
G1 X108.465 Y92.539 E0.00420
G1 X111.064 Y89.688 E0.12096
G1 X114.147 Y87.368 E0.12095
G1 X117.607 Y85.660 E0.12100
G1 X121.325 Y84.624 E0.12099
G1 X125.168 Y84.296 E0.12094
G1 X128.969 Y84.680 E0.11980
G1 X132.636 Y85.755 E0.11979
G1 X136.035 Y87.481 E0.11953
G1 X138.814 Y89.580 E0.10920
G1 X139.258 Y90.017 E0.01953
G1 X141.618 Y92.650 E0.11088
G1 X143.463 Y95.629 E0.10985
G1 X144.867 Y99.173 E0.11953
G1 X145.600 Y102.922 E0.11979
G1 X145.631 Y106.743 E0.11981
G1 X144.940 Y110.574 E0.12204
G1 X143.560 Y114.177 E0.12097
G1 X141.535 Y117.461 E0.12098
G1 X138.936 Y120.312 E0.12096
G1 X135.853 Y122.632 E0.12095
G1 X132.393 Y124.340 E0.12100
G1 X128.675 Y125.376 E0.12099
G1 X124.832 Y125.704 E0.12094
G1 X121.031 Y125.320 E0.11980
G1 X117.364 Y124.245 E0.11979
G1 X113.965 Y122.519 E0.11953
G1 X111.186 Y120.420 E0.10920
G1 X110.742 Y119.983 E0.01953
G1 X108.382 Y117.350 E0.11088
G1 X106.537 Y114.371 E0.10985
G1 X105.133 Y110.827 E0.11953
G1 X104.400 Y107.078 E0.11979
G1 X104.369 Y103.257 E0.11981
G1 X105.060 Y99.426 E0.12204
M73 P2 R36
G1 X106.440 Y95.823 E0.12097
G1 X108.364 Y92.704 E0.11490
;WIPE_START
G1 F8640.000
G1 X108.465 Y92.539 E-0.04479
G1 X110.552 Y90.250 E-0.71521
;WIPE_END
G1 E-0.04000 F2100.000
G1 Z0.600 F10800.000
G1 X109.322 Y93.294
G1 Z0.200
G1 E0.80000 F2100.000
G1 F1200.000
G1 X109.359 Y93.233 E0.00222
G1 X111.813 Y90.535 E0.11436
G1 X114.697 Y88.358 E0.11328
G1 X117.964 Y86.735 E0.11440
G1 X121.476 Y85.747 E0.11438
G1 X125.109 Y85.427 E0.11435
G1 X128.704 Y85.780 E0.11325
G1 X132.172 Y86.788 E0.11325
G1 X135.394 Y88.414 E0.11314
G1 X138.101 Y90.459 E0.10638
G1 X138.427 Y90.785 E0.01445
G1 X140.683 Y93.289 E0.10569
M73 Q2 S36
G1 X142.474 Y96.181 E0.10667
G1 X143.796 Y99.539 E0.11314
G1 X144.479 Y103.086 E0.11325
G1 X144.499 Y106.698 E0.11326
G1 X143.846 Y110.286 E0.11437
G1 X142.553 Y113.660 E0.11329
G1 X140.641 Y116.767 E0.11438
G1 X138.187 Y119.465 E0.11436
G1 X135.303 Y121.642 E0.11328
G1 X132.036 Y123.265 E0.11440
G1 X128.524 Y124.253 E0.11438
G1 X124.891 Y124.573 E0.11435
G1 X121.296 Y124.220 E0.11325
G1 X117.828 Y123.212 E0.11325
G1 X114.606 Y121.586 E0.11314
G1 X111.899 Y119.541 E0.10638
G1 X111.573 Y119.215 E0.01445
G1 X109.317 Y116.711 E0.10569
G1 X107.526 Y113.819 E0.10667
G1 X106.204 Y110.461 E0.11314
G1 X105.521 Y106.914 E0.11325
G1 X105.501 Y103.302 E0.11326
G1 X106.154 Y99.714 E0.11437
G1 X107.447 Y96.340 E0.11329
G1 X109.290 Y93.345 E0.11027
G1 X109.611 Y93.542 F10800.000
G1 F1200.000
G1 X109.670 Y93.446 E0.00355
G1 X112.055 Y90.826 E0.11109
G1 X114.880 Y88.688 E0.11109
G1 X118.084 Y87.093 E0.11220
G1 X121.527 Y86.121 E0.11218
G1 X125.090 Y85.804 E0.11216
G1 X128.616 Y86.147 E0.11107
G1 X132.018 Y87.133 E0.11107
G1 X135.180 Y88.725 E0.11100
G1 X137.863 Y90.751 E0.10541
G1 X138.150 Y91.040 E0.01277
G1 X140.372 Y93.502 E0.10396
G1 X142.145 Y96.365 E0.10560
G1 X143.438 Y99.660 E0.11100
G1 X144.106 Y103.139 E0.11107
G1 X144.122 Y106.682 E0.11107
G1 X143.478 Y110.201 E0.11217
G1 X142.207 Y113.508 E0.11109
G1 X140.330 Y116.554 E0.11219
G1 X137.945 Y119.174 E0.11109
G1 X135.120 Y121.312 E0.11109
G1 X131.916 Y122.907 E0.11220
G1 X128.473 Y123.879 E0.11218
G1 X124.910 Y124.196 E0.11216
G1 X121.384 Y123.853 E0.11107
G1 X117.982 Y122.867 E0.11107
G1 X114.820 Y121.275 E0.11100
G1 X112.137 Y119.249 E0.10541
G1 X111.850 Y118.960 E0.01277
G1 X109.628 Y116.498 E0.10396
G1 X107.855 Y113.635 E0.10560
G1 X106.562 Y110.340 E0.11100
G1 X105.894 Y106.861 E0.11107
G1 X105.878 Y103.318 E0.11107
G1 X106.522 Y99.799 E0.11217
G1 X107.793 Y96.492 E0.11109
G1 X109.580 Y93.594 E0.10675
G1 X109.900 Y93.792 F10800.000
G1 F1200.000
G1 X109.982 Y93.659 E0.00488
G1 X112.322 Y91.093 E0.10890
G1 X115.094 Y89.000 E0.10890
G1 X118.236 Y87.439 E0.11000
M73 Q3 S36
G1 X121.612 Y86.488 E0.10998
G1 X125.071 Y86.181 E0.10888
M73 P3 R36
G1 X128.528 Y86.515 E0.10889
G1 X131.865 Y87.478 E0.10889
G1 X134.966 Y89.037 E0.10885
G1 X137.624 Y91.044 E0.10442
G1 X137.872 Y91.296 E0.01110
G1 X140.060 Y93.715 E0.10225
G1 X141.815 Y96.549 E0.10452
G1 X143.081 Y99.782 E0.10885
G1 X143.732 Y103.193 E0.10889
G1 X143.745 Y106.665 E0.10889
G1 X143.110 Y110.115 E0.10998
G1 X141.862 Y113.356 E0.10890
G1 X140.018 Y116.341 E0.10999
G1 X137.678 Y118.907 E0.10890
G1 X134.906 Y121.000 E0.10890
G1 X131.764 Y122.561 E0.11000
G1 X128.388 Y123.512 E0.10998
G1 X124.929 Y123.819 E0.10888
G1 X121.472 Y123.485 E0.10889
G1 X118.135 Y122.522 E0.10889
G1 X115.034 Y120.963 E0.10885
G1 X112.376 Y118.956 E0.10442
G1 X112.128 Y118.704 E0.01110
G1 X109.940 Y116.285 E0.10225
G1 X108.185 Y113.451 E0.10452
G1 X106.919 Y110.218 E0.10885
G1 X106.268 Y106.807 E0.10889
G1 X106.255 Y103.335 E0.10889
G1 X106.890 Y99.885 E0.10998
G1 X108.138 Y96.644 E0.10890
G1 X109.869 Y93.843 E0.10323
G1 X110.189 Y94.041 F10800.000
G1 F1200.000
G1 X110.293 Y93.873 E0.00620
G1 X112.588 Y91.360 E0.10671
G1 X115.306 Y89.311 E0.10672
G1 X118.387 Y87.784 E0.10781
G1 X121.663 Y86.862 E0.10671
G1 X125.053 Y86.558 E0.10671
G1 X128.441 Y86.882 E0.10671
G1 X131.711 Y87.823 E0.10671
G1 X134.753 Y89.348 E0.10669
G1 X137.385 Y91.336 E0.10342
G1 X139.748 Y93.928 E0.10999
G1 X141.485 Y96.733 E0.10344
G1 X142.723 Y99.902 E0.10669
G1 X143.358 Y103.246 E0.10671
G1 X143.368 Y106.649 E0.10670
G1 X142.743 Y110.029 E0.10779
G1 X141.517 Y113.204 E0.10671
G1 X139.707 Y116.127 E0.10780
G1 X137.412 Y118.640 E0.10671
G1 X134.694 Y120.689 E0.10672
G1 X131.613 Y122.216 E0.10781
G1 X128.337 Y123.138 E0.10671
G1 X124.947 Y123.442 E0.10671
G1 X121.559 Y123.118 E0.10671
G1 X118.289 Y122.177 E0.10671
G1 X115.247 Y120.652 E0.10669
G1 X112.615 Y118.664 E0.10342
G1 X110.252 Y116.072 E0.10999
G1 X108.515 Y113.267 E0.10344
G1 X107.277 Y110.098 E0.10669
G1 X106.642 Y106.754 E0.10671
G1 X106.632 Y103.351 E0.10670
G1 X107.257 Y99.971 E0.10779
G1 X108.483 Y96.796 E0.10671
G1 X110.157 Y94.092 E0.09971
G1 X110.584 Y94.114 F10800.000
G1 F1200.000
G1 X112.830 Y91.650 E0.10452
G1 X115.490 Y89.641 E0.10453
G1 X118.507 Y88.142 E0.10562
G1 X121.715 Y87.236 E0.10452
G1 X125.035 Y86.935 E0.10452
G1 X128.354 Y87.249 E0.10452
G1 X131.558 Y88.168 E0.10452
G1 X134.539 Y89.659 E0.10452
G1 X137.145 Y91.627 E0.10238
G1 X139.437 Y94.141 E0.10667
G1 X141.155 Y96.917 E0.10235
G1 X142.366 Y100.023 E0.10452
G1 X142.985 Y103.298 E0.10452
G1 X142.991 Y106.632 E0.10452
G1 X142.385 Y109.910 E0.10452
G1 X141.187 Y113.021 E0.10452
G1 X139.416 Y115.886 E0.10561
G1 X137.170 Y118.350 E0.10452
G1 X134.510 Y120.359 E0.10453
G1 X131.493 Y121.858 E0.10562
G1 X128.285 Y122.764 E0.10452
G1 X124.965 Y123.065 E0.10452
G1 X121.646 Y122.751 E0.10452
G1 X118.442 Y121.832 E0.10452
G1 X115.461 Y120.341 E0.10452
G1 X112.855 Y118.373 E0.10238
G1 X110.563 Y115.859 E0.10667
G1 X108.845 Y113.083 E0.10235
G1 X107.634 Y109.977 E0.10452
G1 X107.015 Y106.702 E0.10452
G1 X107.009 Y103.368 E0.10452
G1 X107.615 Y100.090 E0.10452
G1 X108.813 Y96.979 E0.10452
G1 X110.552 Y94.165 E0.10373
G1 X110.870 Y94.361 F10800.000
G1 F1200.000
G1 X113.071 Y91.940 E0.10259
G1 X115.674 Y89.971 E0.10234
G1 X118.627 Y88.500 E0.10342
G1 X121.767 Y87.610 E0.10234
G1 X125.017 Y87.312 E0.10234
G1 X128.267 Y87.617 E0.10234
G1 X131.406 Y88.513 E0.10234
G1 X134.326 Y89.971 E0.10234
G1 X136.904 Y91.918 E0.10130
G1 X137.039 Y92.061 E0.00615
G1 X139.126 Y94.355 E0.09724
G1 X140.826 Y97.100 E0.10126
G1 X142.008 Y100.143 E0.10234
G1 X142.611 Y103.351 E0.10234
G1 X142.614 Y106.615 E0.10234
G1 X142.017 Y109.824 E0.10234
G1 X140.841 Y112.869 E0.10234
